X:34
T:Haymaker's Jig     Allan's    #34
C:Trad/Anon
N:Third part is how I learned it
B:Allan's Irish Fiddler (pub. Mozart Allen,  Glascow) date unknown
Z:FROM ALLAN'S TO NOTEWORTHY, FROM NOTEWORTHY TO ABC, MIDI AND .TXT BY VINCE
BRENNAN Dec. 2002 (HTTP://WWW.SOSYOURMOM.COM)
I:abc2nwc
M:6/8
L:1/8
K:G
(B/2c/2)|d2d dBd|gfg B3|cBc ABc|e2d B2c|d2d dBd|gfg B2g|fedecA|G3G2:|
|:(B/2d/2)|g2g gfe|dgd B3|cBc ABc|e2d B2d|g2g gfe|dgd B2g|fed ecA|(G3G2):|
|:g|fed c2e|e2d B2d|d2c ABc|e2d B2g|fed c2e|e2d B2g|fed ecA|(G3G2):|
